!!!COM: Pepper, Herbert
!!!CDT: b.1912
!!!OTL: National Anthem, Senegal
!!!ENC: Davis, Matthew J.
!!Vocal Line Only
**kern
*clefG2
*k[]
*C:
*M4/4
=1-
1r
==!|:2
1r
=3
1r
=4
8cc
8cc
4cc
8b
8b
4b
=5
6a
6a
6a
8a
8a
4g
8r
8a
=6
8b
8a
8g
8f#
4.e
8a
=7
8g
8f#
8e
8f
4g
8r
8b
=8
8.dd
16g
8.f#
16g
4.dd
8b
=9
8.dd
16dd
8.cc
16b
4a
8a
8b
=10
8.a
16g
8.f#
16e
4.e
8a
=11
8.g
16f#
8.e
16f#
[4g
8g]
8r
==12
8cc
8cc
4cc
8b
8b
4b
=13
6a
6a
6a
8a
8a
[4g
8g]
8r
=14
!Chorus
4a
8g
8e
8c
8e
4g
=15
8r
8g
8a
8g
8e
8g
8a
8a
=16
8r
8cc
8b
8a
4g
8e
8g
=17
8a
8g
8e
8g
[4a
8a]
8r
=18
8g
8a
8g
8e
4c
8A
8c
=19
4e
8e
8r
8g
8a
8g
8e
=20
8c
8A
8c
8e
4g
8r
8g
=21
!First Ending
8e
8c
8A
8c
4c
8c
8r
==:|!22
!Second Ending
8e
8c
8e
8g
2cc
==|!
*-
